img/benefits/group-8.svg

<svg width="36" height="27" viewBox="0 0 36 27" fill="none" xmlns="http://www.w3.org/2000/svg">
<path d="M4.60311 27H30.7494C32.27 27 33.4173 26.6175 34.1914 25.8525C34.9655 25.0875 35.3525 23.9538 35.3525 22.4515V4.54848C35.3525 3.04619 34.9655 1.91254 34.1914 1.14752C33.4173 0.382508 32.27 0 30.7494 0H4.60311C3.08348 0 1.93639 0.382508 1.16183 1.14752C0.387277 1.91254 0 3.04619 0 4.54848V22.4515C0 23.963 0.387277 25.0989 1.16183 25.8593C1.93639 26.6198 3.08348 27 4.60311 27Z" fill="#0037FC"/>
<path d="M4.70508 24.4306C4.02511 24.4306 3.50147 24.2501 3.13413 23.8893C2.7668 23.5284 2.58313 22.9873 2.58313 22.266V4.7461C2.58313 4.02578 2.7668 3.48518 3.13413 3.12431C3.50147 2.76344 4.02511 2.58301 4.70508 2.58301H30.6338C31.3149 2.58301 31.8414 2.76344 32.2133 3.12431C32.5852 3.48518 32.7711 4.02578 32.7711 4.7461V22.266C32.7711 22.9873 32.5852 23.5284 32.2133 23.8893C31.8414 24.2501 31.3149 24.4306 30.6338 24.4306H4.70508Z" fill="white"/>
<path d="M5.79405 22.4064H29.559C30.3498 22.4064 30.7452 22.001 30.7452 21.1902V5.82316C30.7452 5.01234 30.3498 4.60693 29.559 4.60693H5.79405C5.00231 4.60693 4.60645 5.01234 4.60645 5.82316V21.1902C4.60645 22.001 5.00231 22.4064 5.79405 22.4064Z" fill="#0037FC"/>
</svg>

<svg width="36" height="27" fill="none" xmlns="http://www.w3.org/2000/svg"><path d="M4.603 27H30.75c1.521 0 2.668-.383 3.442-1.148.774-.765 1.161-1.898 1.161-3.4V4.547c0-1.502-.386-2.635-1.16-3.4C33.416.383 32.27 0 30.748 0H4.603c-1.52 0-2.667.383-3.441 1.148C.387 1.913 0 3.046 0 4.548v17.903c0 1.512.387 2.648 1.162 3.408C1.936 26.62 3.083 27 4.603 27z" fill="#0037FC"/><path d="M4.705 24.43c-.68 0-1.204-.18-1.57-.54-.368-.362-.552-.903-.552-1.624V4.746c0-.72.184-1.26.551-1.622.367-.36.891-.541 1.571-.541h25.929c.68 0 1.207.18 1.58.541.371.361.557.902.557 1.622v17.52c0 .721-.186 1.262-.558 1.623-.372.361-.898.542-1.58.542H4.706z" fill="#fff"/><path d="M5.794 22.406H29.56c.79 0 1.186-.405 1.186-1.216V5.823c0-.81-.395-1.216-1.186-1.216H5.794c-.792 0-1.188.405-1.188 1.216V21.19c0 .811.396 1.216 1.188 1.216z" fill="#0037FC"/></svg>
